X: 3039
T: Minuet
%R: minuet, waltz
B: Henry Playford "Apollo's Banquet", London 1687 (5th Edition)
F: https://archive.org/details/apollosbanquetco01rugg
Z: 2017 John Chambers <jc:trillian.mit.edu>
M: 3/4
L: 1/4
K: Dm
% - - - - - - - - - -
A |\
d e f | e f g | f e d | a a A |\
d e f | e f g | f e d | ^c2 :: a |\
fe f g | ^f d d | g> a g/f/ | e c c |
f c _e | d e f | f>g e | f2 A |\
d A c | =B> c d | e> f e/d/ | ^c f a |\
e e ^f | g> a f- | f/e/ e> d | d4 |]
% - - - - - - - - - -

%%sep 1 1 500
%%sep 1 1 500

